modules/dashboard/images/cx-circle.svg

<?xml version="1.0" encoding="UTF-8" standalone="no"?>
<svg width="92px" height="92px" viewBox="0 0 92 92" version="1.1" xmlns="http://www.w3.org/2000/svg" xmlns:xlink="http://www.w3.org/1999/xlink" xmlns:sketch="http://www.bohemiancoding.com/sketch/ns">
    <defs></defs>
    <g id="Page-1" stroke="none" stroke-width="1" fill="none" fill-rule="evenodd" sketch:type="MSPage">
        <path d="M46,92 C71.4050985,92 92,71.4050985 92,46 C92,20.5949015 71.4050985,0 46,0 C20.5949015,0 0,20.5949015 0,46 C0,71.4050985 20.5949015,92 46,92 Z M44.6339371,50.0790495 C40.0618888,44.7449932 37.7758647,39.1569342 37.0138567,37.1249128 L48.9519827,37.1249128 L50.7300014,32.0448592 L36.759854,32.0448592 L36.759854,24.4247788 L31.6798004,24.4247788 L31.6798004,32.0448592 L18.9796664,32.0448592 L18.9796664,37.1249128 L31.6798004,37.1249128 C31.171795,39.4109369 28.3777656,49.3170414 18.7256637,56.4291165 L21.7736959,60.4931593 C28.6317682,55.4131057 32.6958111,49.0630387 34.7278326,44.2369878 C36.5058513,47.5390227 39.0458781,51.8570682 42.8559183,55.6671084 L44.6339371,50.0790495 Z M48.1899746,67.6052344 L51.4920095,57.4451272 L64.9541515,57.4451272 L68.2561863,67.6052344 L73.8442453,67.6052344 L62.160122,32.0448592 L54.5400416,32.0448592 L42.6019156,67.6052344 L48.1899746,67.6052344 Z M58.3500818,37.1249128 L63.4301354,52.3650736 L53.2700282,52.3650736 L58.3500818,37.1249128 L58.3500818,37.1249128 Z" id="cx-circle" fill="#CCCCCC" sketch:type="MSShapeGroup"></path>
    </g>
</svg>

<?xml version="1.0" encoding="UTF-8" standalone="no"?>
<svg width="92" height="92" viewBox="0 0 92 92" xmlns="http://www.w3.org/2000/svg">
    <g id="Page-1" fill="none">
        <path d="M46 92c25.405 0 46-20.595 46-46S71.405 0 46 0 0 20.595 0 46s20.595 46 46 46zm-1.366-41.92c-4.572-5.335-6.858-10.923-7.62-12.955h11.938l1.778-5.08H36.76v-7.62h-5.08v7.62h-12.7v5.08h12.7c-.508 2.286-3.302 12.192-12.954 19.304l3.048 4.063c6.858-5.08 10.922-11.43 12.954-16.256 1.778 3.302 4.318 7.62 8.128 11.43l1.778-5.588zm3.556 17.525l3.302-10.16h13.462l3.302 10.16h5.588L62.16 32.045h-7.62l-11.938 35.56h5.588zm10.16-30.48l5.08 15.24H53.27l5.08-15.24z" id="cx-circle" fill="#ccc"/>
    </g>
</svg>
